Numix-Light/16/status/indicator-keyboard-Ga-1.svg

<?xml version="1.0" encoding="UTF-8" standalone="no"?>
<svg
   xmlns:dc="http://purl.org/dc/elements/1.1/"
   xmlns:cc="http://creativecommons.org/ns#"
   xmlns:rdf="http://www.w3.org/1999/02/22-rdf-syntax-ns#"
   xmlns:svg="http://www.w3.org/2000/svg"
   xmlns="http://www.w3.org/2000/svg"
   xmlns:sodipodi="http://sodipodi.sourceforge.net/DTD/sodipodi-0.dtd"
   xmlns:inkscape="http://www.inkscape.org/namespaces/inkscape"
   viewBox="0 0 16 16"
   id="svg2"
   version="1.1"
   inkscape:version="0.91 r13725"
   sodipodi:docname="indicator-keyboard-Ga-1.svg">
  <metadata
     id="metadata14">
    <rdf:RDF>
      <cc:Work
         rdf:about="">
        <dc:format>image/svg+xml</dc:format>
        <dc:type
           rdf:resource="http://purl.org/dc/dcmitype/StillImage" />
      </cc:Work>
    </rdf:RDF>
  </metadata>
  <defs
     id="defs12" />
  <sodipodi:namedview
     pagecolor="#ffffff"
     bordercolor="#666666"
     borderopacity="1"
     objecttolerance="10"
     gridtolerance="10"
     guidetolerance="10"
     inkscape:pageopacity="0"
     inkscape:pageshadow="2"
     inkscape:window-width="459"
     inkscape:window-height="369"
     id="namedview10"
     showgrid="false"
     inkscape:zoom="14.75"
     inkscape:cx="8"
     inkscape:cy="8"
     inkscape:window-x="65"
     inkscape:window-y="24"
     inkscape:window-maximized="0"
     inkscape:current-layer="svg2" />
  <path
     style="fill:#353535;fill-opacity:1"
     d="M 1.5996094 0 C 0.71320937 2.9605947e-16 0 0.71320937 0 1.5996094 L 0 14.400391 C 2.9605947e-16 15.286791 0.71320937 16 1.5996094 16 L 14.400391 16 C 15.286791 16 16 15.286791 16 14.400391 L 16 1.5996094 C 16 0.71320937 15.286791 0 14.400391 0 L 1.5996094 0 z M 4.9238281 4.7246094 C 5.3858281 4.7246094 5.7683594 4.7749531 6.0683594 4.8769531 C 6.3683594 4.9729531 6.5866094 5.06625 6.7246094 5.15625 L 6.5175781 5.6777344 C 6.3495781 5.5577344 6.1219844 5.462625 5.8339844 5.390625 C 5.5459844 5.312625 5.2344375 5.2734375 4.8984375 5.2734375 C 4.5864375 5.2734375 4.291625 5.3293594 4.015625 5.4433594 C 3.739625 5.5573594 3.4989219 5.7290313 3.2949219 5.9570312 C 3.0909219 6.1850312 2.9305469 6.4667344 2.8105469 6.8027344 C 2.6965469 7.1387344 2.6386719 7.5286563 2.6386719 7.9726562 C 2.6386719 8.3866563 2.6872031 8.7616563 2.7832031 9.0976562 C 2.8792031 9.4276563 3.0228438 9.713125 3.2148438 9.953125 C 3.4128437 10.187125 3.6553594 10.366188 3.9433594 10.492188 C 4.2313594 10.618187 4.5653594 10.681641 4.9433594 10.681641 C 5.2493594 10.681641 5.5030313 10.666719 5.7070312 10.636719 C 5.9170312 10.600719 6.0588594 10.567109 6.1308594 10.537109 L 6.1308594 8.1445312 L 6.7421875 8.1445312 L 6.7421875 10.925781 C 6.6281875 10.973781 6.4043594 11.033469 6.0683594 11.105469 C 5.7383594 11.183469 5.32975 11.222656 4.84375 11.222656 C 4.43575 11.222656 4.0569844 11.149859 3.7089844 11.005859 C 3.3609844 10.861859 3.0587812 10.654766 2.8007812 10.384766 C 2.5487812 10.108765 2.3510313 9.7691875 2.2070312 9.3671875 C 2.0630313 8.9591875 1.9902344 8.4946562 1.9902344 7.9726562 C 1.9902344 7.4506563 2.0686094 6.9898906 2.2246094 6.5878906 C 2.3806094 6.1798906 2.5914687 5.8403125 2.8554688 5.5703125 C 3.1254687 5.2943125 3.4370156 5.0834531 3.7910156 4.9394531 C 4.1450156 4.7954531 4.5218281 4.7246094 4.9238281 4.7246094 z M 9.5429688 6.3359375 C 9.8489688 6.3359375 10.108359 6.3807031 10.318359 6.4707031 C 10.534359 6.5547031 10.707844 6.6740781 10.839844 6.8300781 C 10.971844 6.9800781 11.066953 7.1591406 11.126953 7.3691406 C 11.186953 7.5791406 11.216797 7.8086875 11.216797 8.0546875 L 11.216797 10.988281 C 11.156797 11.006281 11.071031 11.026781 10.957031 11.050781 C 10.843031 11.068781 10.710547 11.089281 10.560547 11.113281 C 10.410547 11.137281 10.242641 11.155969 10.056641 11.167969 C 9.8766406 11.185969 9.6900469 11.195313 9.4980469 11.195312 C 9.2520469 11.195312 9.0244531 11.167281 8.8144531 11.113281 C 8.6104531 11.059281 8.4313906 10.975328 8.2753906 10.861328 C 8.1253906 10.741328 8.0040625 10.592109 7.9140625 10.412109 C 7.8300625 10.226109 7.7890625 10.000328 7.7890625 9.7363281 C 7.7890625 9.4843281 7.8356406 9.2698437 7.9316406 9.0898438 C 8.0276406 8.9098437 8.1638906 8.7624375 8.3378906 8.6484375 C 8.5118906 8.5284375 8.7189844 8.4407187 8.9589844 8.3867188 C 9.1989844 8.3327188 9.4601875 8.3066406 9.7421875 8.3066406 C 9.8261875 8.3066406 9.9119531 8.3122187 10.001953 8.3242188 C 10.097953 8.3302187 10.187484 8.341375 10.271484 8.359375 C 10.361484 8.371375 10.438047 8.3862969 10.498047 8.4042969 C 10.564047 8.4162969 10.608813 8.4294063 10.632812 8.4414062 L 10.632812 8.1523438 C 10.632812 7.9903438 10.619703 7.8355469 10.595703 7.6855469 C 10.571703 7.5295469 10.517594 7.3914844 10.433594 7.2714844 C 10.355594 7.1454844 10.241797 7.0466094 10.091797 6.9746094 C 9.9477968 6.8966094 9.755625 6.8574219 9.515625 6.8574219 C 9.173625 6.8574219 8.9199531 6.8816875 8.7519531 6.9296875 C 8.5839531 6.9776875 8.4608125 7.016875 8.3828125 7.046875 L 8.3007812 6.5332031 C 8.4027813 6.4852031 8.5595313 6.4404375 8.7695312 6.3984375 C 8.9855312 6.3564375 9.2429687 6.3359375 9.5429688 6.3359375 z M 9.7226562 8.8105469 C 9.5786562 8.8105469 9.4294375 8.8217031 9.2734375 8.8457031 C 9.1174375 8.8637031 8.9737969 8.9084687 8.8417969 8.9804688 C 8.7097969 9.0464687 8.6015781 9.1397656 8.5175781 9.2597656 C 8.4335781 9.3797656 8.390625 9.5383281 8.390625 9.7363281 C 8.390625 9.9103281 8.4186563 10.057734 8.4726562 10.177734 C 8.5326562 10.297734 8.6128438 10.394797 8.7148438 10.466797 C 8.8228437 10.538797 8.94975 10.592906 9.09375 10.628906 C 9.24375 10.658906 9.4116563 10.673828 9.5976562 10.673828 C 9.8256562 10.673828 10.023406 10.666297 10.191406 10.654297 C 10.365406 10.636297 10.512813 10.615797 10.632812 10.591797 L 10.632812 8.953125 C 10.566813 8.923125 10.462359 8.8932812 10.318359 8.8632812 C 10.174359 8.8272812 9.9746563 8.8105469 9.7226562 8.8105469 z M 13.740234 8.8417969 L 14.009766 8.8417969 L 14.009766 12.896484 L 13.628906 12.896484 L 13.628906 9.421875 C 13.586006 9.468675 13.529184 9.5157063 13.458984 9.5664062 C 13.392684 9.6171063 13.316269 9.66805 13.230469 9.71875 C 13.144669 9.76555 13.056491 9.812575 12.962891 9.859375 C 12.869291 9.902275 12.77524 9.9375437 12.681641 9.9648438 L 12.570312 9.671875 C 12.804312 9.5899751 13.012013 9.4880813 13.195312 9.3632812 C 13.378612 9.2345813 13.560834 9.0601969 13.740234 8.8417969 z "
     id="path4" />
</svg>

<svg xmlns="http://www.w3.org/2000/svg" viewBox="0 0 16 16">
 <path d="m 1.6 0 c -0.886 0 -1.6 0.713 -1.6 1.6 l 0 12.801 c 0 0.886 0.713 1.6 1.6 1.6 l 12.801 0 c 0.886 0 1.6 -0.713 1.6 -1.6 l 0 -12.801 c 0 -0.886 -0.713 -1.6 -1.6 -1.6 l -12.801 0 z m 3.324 4.725 c 0.462 0 0.845 0.05 1.145 0.152 c 0.3 0.096 0.518 0.189 0.656 0.279 l -0.207 0.521 c -0.168 -0.12 -0.396 -0.215 -0.684 -0.287 c -0.288 -0.078 -0.6 -0.117 -0.936 -0.117 c -0.312 0 -0.607 0.056 -0.883 0.17 c -0.276 0.114 -0.517 0.286 -0.721 0.514 c -0.204 0.228 -0.364 0.51 -0.484 0.846 c -0.114 0.336 -0.172 0.726 -0.172 1.17 c 0 0.414 0.049 0.789 0.145 1.125 c 0.096 0.33 0.24 0.615 0.432 0.855 c 0.198 0.234 0.441 0.413 0.729 0.539 c 0.288 0.126 0.622 0.189 1 0.189 c 0.306 0 0.56 -0.015 0.764 -0.045 c 0.21 -0.036 0.352 -0.07 0.424 -0.1 l 0 -2.393 l 0.611 0 l 0 2.781 c -0.114 0.048 -0.338 0.108 -0.674 0.18 c -0.33 0.078 -0.739 0.117 -1.225 0.117 c -0.408 0 -0.787 -0.073 -1.135 -0.217 c -0.348 -0.144 -0.65 -0.351 -0.908 -0.621 c -0.252 -0.276 -0.45 -0.616 -0.594 -1.018 c -0.144 -0.408 -0.217 -0.873 -0.217 -1.395 c 0 -0.522 0.078 -0.983 0.234 -1.385 c 0.156 -0.408 0.367 -0.748 0.631 -1.018 c 0.27 -0.276 0.582 -0.487 0.936 -0.631 c 0.354 -0.144 0.731 -0.215 1.133 -0.215 z m 4.619 1.611 c 0.306 0 0.565 0.045 0.775 0.135 c 0.216 0.084 0.389 0.203 0.521 0.359 c 0.132 0.15 0.227 0.329 0.287 0.539 c 0.06 0.21 0.09 0.44 0.09 0.686 l 0 2.934 c -0.06 0.018 -0.146 0.038 -0.26 0.063 c -0.114 0.018 -0.246 0.038 -0.396 0.063 c -0.15 0.024 -0.318 0.043 -0.504 0.055 c -0.18 0.018 -0.367 0.027 -0.559 0.027 c -0.246 0 -0.474 -0.028 -0.684 -0.082 c -0.204 -0.054 -0.383 -0.138 -0.539 -0.252 c -0.15 -0.12 -0.271 -0.269 -0.361 -0.449 c -0.084 -0.186 -0.125 -0.412 -0.125 -0.676 c 0 -0.252 0.047 -0.466 0.143 -0.646 c 0.096 -0.18 0.232 -0.327 0.406 -0.441 c 0.174 -0.12 0.381 -0.208 0.621 -0.262 c 0.24 -0.054 0.501 -0.08 0.783 -0.08 c 0.084 0 0.17 0.006 0.26 0.018 c 0.096 0.006 0.186 0.017 0.27 0.035 c 0.09 0.012 0.167 0.027 0.227 0.045 c 0.066 0.012 0.111 0.025 0.135 0.037 l 0 -0.289 c 0 -0.162 -0.013 -0.317 -0.037 -0.467 c -0.024 -0.156 -0.078 -0.294 -0.162 -0.414 c -0.078 -0.126 -0.192 -0.225 -0.342 -0.297 c -0.144 -0.078 -0.336 -0.117 -0.576 -0.117 c -0.342 0 -0.596 0.024 -0.764 0.072 c -0.168 0.048 -0.291 0.087 -0.369 0.117 l -0.082 -0.514 c 0.102 -0.048 0.259 -0.093 0.469 -0.135 c 0.216 -0.042 0.473 -0.063 0.773 -0.063 z m 0.18 2.475 c -0.144 0 -0.293 0.011 -0.449 0.035 c -0.156 0.018 -0.3 0.063 -0.432 0.135 c -0.132 0.066 -0.24 0.159 -0.324 0.279 c -0.084 0.12 -0.127 0.279 -0.127 0.477 c 0 0.174 0.028 0.321 0.082 0.441 c 0.06 0.12 0.14 0.217 0.242 0.289 c 0.108 0.072 0.235 0.126 0.379 0.162 c 0.15 0.03 0.318 0.045 0.504 0.045 c 0.228 0 0.426 -0.008 0.594 -0.02 c 0.174 -0.018 0.321 -0.038 0.441 -0.063 l 0 -1.639 c -0.066 -0.03 -0.17 -0.06 -0.314 -0.09 c -0.144 -0.036 -0.344 -0.053 -0.596 -0.053 z m 4.02 0.031 l 0.27 0 l 0 4.055 l -0.381 0 l 0 -3.475 c -0.043 0.047 -0.1 0.094 -0.17 0.145 c -0.066 0.051 -0.143 0.102 -0.229 0.152 c -0.086 0.047 -0.174 0.094 -0.268 0.141 c -0.094 0.043 -0.188 0.078 -0.281 0.105 l -0.111 -0.293 c 0.234 -0.082 0.442 -0.184 0.625 -0.309 c 0.183 -0.129 0.366 -0.303 0.545 -0.521 z" style="fill:#353535;fill-opacity:1"/>
</svg>
